svg/table_key.svg

<svg xmlns="http://www.w3.org/2000/svg" viewBox="0 0 24 24"><path d="M16.83 17A2.99 2.99 0 0 0 14 15c-1.66 0-3 1.34-3 3s1.34 3 3 3c1.31 0 2.42-.83 2.83-2H19v2h2v-2h1v-2zM14 19c-.55 0-1-.45-1-1s.45-1 1-1 1 .45 1 1-.45 1-1 1m-5-1H4v-4h6v1.03c.91-1.22 2.36-2.03 4-2.03 1.1 0 2.14.37 3 1h1v1h2V6c0-1.11-.89-2-2-2H4a2 2 0 0 0-2 2v12a2 2 0 0 0 2 2h5.42A4.9 4.9 0 0 1 9 18m3-10h6v4h-6zM4 8h6v4H4z"/></svg>

<?xml version="1.0" encoding="UTF-8"?><!DOCTYPE svg PUBLIC "-//W3C//DTD SVG 1.1//EN" "http://www.w3.org/Graphics/SVG/1.1/DTD/svg11.dtd"><svg xmlns="http://www.w3.org/2000/svg" xmlns:xlink="http://www.w3.org/1999/xlink" version="1.1" id="mdi-table-key" width="24" height="24" viewBox="0 0 24 24"><path d="M16.83 17C16.42 15.83 15.31 15 14 15C12.34 15 11 16.34 11 18S12.34 21 14 21C15.31 21 16.42 20.17 16.83 19H19V21H21V19H22V17H16.83M14 19C13.45 19 13 18.55 13 18S13.45 17 14 17 15 17.45 15 18 14.55 19 14 19M9 18H4V14H10V15.03C10.91 13.81 12.36 13 14 13C15.1 13 16.14 13.37 17 14H18V15L18 15H20V6C20 4.89 19.11 4 18 4H4C2.9 4 2 4.89 2 6V18C2 19.11 2.9 20 4 20H9.42C9.15 19.39 9 18.71 9 18M12 8H18V12H12V8M4 8H10V12H4V8Z" /></svg>
